images/new.svg

<svg fill="none" height="51" viewBox="0 0 74 51" width="74" xmlns="http://www.w3.org/2000/svg"><path d="m0 11.1348h68v37.9115h-68z" fill="#ff97b6" transform="matrix(.98650249 -.16374626 .16374626 .98650249 -1.823282 .150292)"/><path d="m15.0464 35.1992-2.3563-14.1953 3.6705-.6092 7.0858 6.5338-1.2454-7.5032 3.8936-.6463 2.3562 14.1953-3.4474.5722-7.356-6.7807 1.2925 7.7871zm15.5166-2.5755-2.3563-14.1953 11.4171-1.8951.5554 3.346-7.5235 1.2488.3568 2.1496 6.8138-1.131.515 3.1027-6.8138 1.131.3736 2.251 7.625-1.2657.5553 3.3461zm16.9293-2.7059-7.1183-13.509 4.1572-.6901 3.8373 7.8024 1.3677-8.708 3.3865-.5621 4.1077 7.7991 1.1108-8.6236 4.0761-.6766-2.3723 15.0843-3.4271.5689-4.2159-7.6978-1.4825 8.6437z" fill="#002922"/></svg>

<svg width="74" height="51" viewBox="0 0 74 51" fill="none" xmlns="http://www.w3.org/2000/svg">
<rect y="11.1348" width="68" height="37.9115" transform="rotate(-9.42441 0 11.1348)" fill="#FF97B6"/>
<path d="M15.0464 35.1992L12.6901 21.0039L16.3606 20.3947L23.4464 26.9285L22.201 19.4253L26.0946 18.779L28.4508 32.9743L25.0034 33.5465L17.6474 26.7658L18.9399 34.5529L15.0464 35.1992ZM30.563 32.6237L28.2067 18.4284L39.6238 16.5333L40.1792 19.8793L32.6557 21.1281L33.0125 23.2777L39.8263 22.1467L40.3413 25.2494L33.5275 26.3804L33.9011 28.6314L41.5261 27.3657L42.0814 30.7118L30.563 32.6237ZM47.4923 29.9178L40.374 16.4088L44.5312 15.7187L48.3685 23.5211L49.7362 14.8131L53.1227 14.251L57.2304 22.0501L58.3412 13.4265L62.4173 12.7499L60.045 27.8342L56.6179 28.4031L52.402 20.7053L50.9195 29.349L47.4923 29.9178Z" fill="#002922"/>
</svg>
